X: 92
T:Lloyd's Whim
M:C|
L:1/8
Q:200
C:Trad
S:Blodau'r Grug Collection Vol. 2
R:Set Dance
A:Wales
Z:brian_martin12345@yahoo.com
K:G
BGBd AFAc|BGBd A2D2|BGBd AFAc|Bd AB G2G2:||!
gafg efdf|gafg e2d2|gafg edeg|dBcA G2G2:||

